<?xml version="1.0" encoding="UTF-8"?>
<map version="1.10" tiledversion="1.11.2" orientation="orthogonal" renderorder="left-down" width="20" height="20" tilewidth="16" tileheight="16" infinite="0" nextlayerid="5" nextobjectid="4">
 <tileset firstgid="1" source="../../Sprites/CosmicLilac_Tiles.tsx"/>
 <layer id="1" name="Background" width="20" height="20">
  <data encoding="csv">
92,92,92,92,92,92,92,92,92,92,92,92,92,92,92,92,92,92,92,92,
92,92,92,92,92,92,92,92,92,92,92,92,92,92,92,92,92,92,92,92,
92,92,92,92,92,92,92,92,92,92,92,92,92,92,92,92,92,92,92,92,
92,92,92,92,92,29,29,29,29,29,29,29,29,29,29,92,92,92,92,92,
92,92,92,92,92,29,29,15,29,29,29,29,29,29,29,92,92,92,92,92,
92,92,92,92,92,23,20,21,86,20,21,21,21,86,21,92,92,92,92,92,
92,92,92,92,92,36,48,46,29,47,29,29,29,29,29,92,92,92,92,92,
92,92,92,92,92,35,29,29,29,29,29,28,29,29,29,92,92,92,92,92,
92,92,92,92,92,36,29,29,29,29,29,29,46,29,29,92,92,92,92,92,
92,92,92,92,92,36,46,29,29,29,29,29,29,29,48,92,92,92,92,92,
92,92,92,92,92,36,29,51,29,29,29,48,29,29,29,92,92,92,92,92,
92,92,92,92,92,36,29,29,48,29,29,29,29,29,29,92,92,92,92,92,
92,92,92,92,92,36,29,29,29,29,29,29,47,29,29,92,92,92,92,92,
92,92,92,92,92,35,29,29,29,46,29,29,29,52,29,92,92,92,92,92,
92,92,92,92,92,36,29,29,29,29,29,29,29,29,29,92,92,92,92,92,
92,92,92,92,92,92,92,92,92,83,83,92,92,92,92,92,92,92,92,92,
92,92,92,92,92,92,92,92,92,92,92,92,92,92,92,92,92,92,92,92,
92,92,92,92,92,92,92,92,92,92,92,92,92,92,92,92,92,92,92,92,
92,92,92,92,92,92,92,92,92,92,92,92,92,92,92,92,92,92,92,92,
92,92,92,92,92,92,92,92,92,92,92,92,92,92,92,92,92,92,92,92
</data>
 </layer>
 <layer id="2" name="Walls" width="20" height="20">
  <data encoding="csv">
0,0,0,0,0,0,0,0,0,0,0,0,0,0,0,0,0,0,0,0,
0,0,0,0,0,0,0,0,0,0,0,0,0,0,0,0,0,0,0,0,
0,0,0,0,1,9,9,9,9,9,9,9,9,9,9,4,0,0,0,0,
0,0,0,0,27,15,15,15,15,7,15,15,15,15,15,30,0,0,0,0,
0,0,0,0,27,15,15,13,15,15,15,15,15,15,15,30,0,0,0,0,
0,0,0,0,14,0,0,0,0,0,0,87,39,0,65,30,0,0,0,0,
0,0,0,0,14,0,0,0,0,0,0,0,0,87,0,30,0,0,0,0,
0,0,0,0,14,0,0,87,0,0,0,0,0,50,0,30,0,0,0,0,
0,0,0,0,14,0,0,0,0,0,0,0,0,87,0,30,0,0,0,0,
0,0,0,0,14,0,87,0,0,0,0,0,87,87,0,30,0,0,0,0,
0,0,0,0,14,0,0,0,0,0,0,0,87,0,0,30,0,0,0,0,
0,0,0,0,14,0,0,0,0,0,0,0,87,0,87,30,0,0,0,0,
0,0,0,0,14,0,0,87,0,0,0,87,0,0,0,30,0,0,0,0,
0,0,0,0,14,0,0,0,0,0,0,87,87,0,0,30,0,0,0,0,
0,0,0,0,14,0,0,0,0,0,0,0,0,0,87,30,0,0,0,0,
0,0,0,0,40,42,42,42,45,0,0,44,42,42,42,43,0,0,0,0,
0,0,0,0,0,0,0,0,40,0,0,43,0,0,0,0,0,0,0,0,
0,0,0,0,0,0,0,0,0,0,0,0,0,0,0,0,0,0,0,0,
0,0,0,0,0,0,0,0,0,0,0,0,0,0,0,0,0,0,0,0,
0,0,0,0,0,0,0,0,0,0,0,0,0,0,0,0,0,0,0,0
</data>
 </layer>
 <objectgroup id="4" name="Interactables">
  <object id="1" name="Dialogue36" type="Interactable_Dialogue1x1" gid="65" x="224" y="96" width="16" height="16"/>
  <object id="2" name="Dialogue34" type="Interactable_Dialogue1x1" x="112" y="64" width="16" height="16"/>
  <object id="3" name="Dialogue35" type="Interactable_Dialogue1x1" x="192" y="80" width="16" height="16"/>
 </objectgroup>
 <layer id="3" name="Foreground" width="20" height="20">
  <data encoding="csv">
0,0,0,0,0,0,0,0,0,0,0,0,0,0,0,0,0,0,0,0,
0,0,0,0,0,0,0,0,0,0,0,0,0,0,0,0,0,0,0,0,
0,0,0,0,0,0,0,0,0,0,0,0,0,0,0,0,0,0,0,0,
0,0,0,0,0,0,64,0,0,0,0,61,62,63,0,0,0,0,0,0,
0,0,0,0,0,0,0,0,0,0,0,0,26,0,0,0,0,0,0,0,
0,0,0,0,0,0,0,0,0,0,0,0,0,0,0,0,0,0,0,0,
0,0,0,0,0,0,0,0,0,0,0,0,0,0,0,0,0,0,0,0,
0,0,0,0,0,0,0,0,0,0,0,0,0,0,0,0,0,0,0,0,
0,0,0,0,0,0,0,0,0,0,0,0,0,0,0,0,0,0,0,0,
0,0,0,0,0,0,0,0,0,0,0,0,0,0,0,0,0,0,0,0,
0,0,0,0,0,0,0,0,0,0,0,0,0,0,0,0,0,0,0,0,
0,0,0,0,0,0,0,0,0,0,0,0,0,0,0,0,0,0,0,0,
0,0,0,0,0,0,0,0,0,0,0,0,0,0,0,0,0,0,0,0,
0,0,0,0,0,0,0,0,0,0,0,0,0,0,0,0,0,0,0,0,
0,0,0,0,0,0,0,0,0,0,0,0,0,0,0,0,0,0,0,0,
0,0,0,0,0,0,0,0,0,0,0,0,0,0,0,0,0,0,0,0,
0,0,0,0,0,0,0,0,40,41,41,43,0,0,0,0,0,0,0,0,
0,0,0,0,0,0,0,0,92,92,92,92,0,0,0,0,0,0,0,0,
0,0,0,0,0,0,0,0,0,0,0,0,0,0,0,0,0,0,0,0,
0,0,0,0,0,0,0,0,0,0,0,0,0,0,0,0,0,0,0,0
</data>
 </layer>
</map>
