<?xml version="1.0" encoding="UTF-8"?>
<map version="1.10" tiledversion="1.11.2" orientation="orthogonal" renderorder="left-down" width="20" height="20" tilewidth="16" tileheight="16" infinite="0" nextlayerid="5" nextobjectid="9">
 <tileset firstgid="1" source="../../Sprites/CosmicLilac_Tiles.tsx"/>
 <layer id="1" name="Background" width="20" height="20">
  <data encoding="csv">
92,92,92,92,92,92,92,92,92,92,92,92,92,92,92,92,92,92,92,92,
92,92,92,92,92,92,92,92,92,92,92,92,92,92,92,92,92,92,92,92,
92,92,92,92,92,92,92,29,29,29,29,29,29,29,29,29,29,92,92,92,
92,92,92,92,92,92,92,29,29,29,29,29,29,29,29,29,29,92,92,92,
92,92,92,92,92,92,92,23,89,89,89,21,20,21,21,21,21,92,92,92,
92,92,92,92,92,92,92,35,29,29,29,29,29,46,29,56,29,92,92,92,
92,92,92,92,92,92,92,36,46,29,29,47,29,29,29,29,29,92,92,92,
92,92,92,92,92,92,92,92,92,92,92,92,92,49,92,92,92,92,92,92,
92,92,92,92,92,92,92,92,92,92,92,92,92,36,92,92,92,92,92,92,
92,92,92,92,92,92,92,92,92,92,92,92,92,35,92,92,92,92,92,92,
92,92,92,92,92,92,92,92,92,92,92,92,92,36,92,92,92,92,92,92,
29,29,29,29,29,29,29,29,29,29,29,29,29,36,29,29,29,29,29,29,
29,29,29,29,29,29,29,29,29,29,29,29,29,36,29,29,29,29,29,29,
21,21,21,21,21,21,20,21,21,21,21,21,21,22,33,21,21,21,20,21,
29,29,29,29,29,46,29,29,29,47,29,29,29,29,29,46,29,29,29,29,
92,92,92,92,92,92,92,29,92,92,92,92,92,92,92,92,92,92,92,92,
92,92,92,92,92,92,92,83,92,92,92,92,92,92,92,92,92,92,92,92,
92,92,92,92,92,92,92,92,92,92,92,92,92,92,92,92,92,92,92,92,
92,92,92,92,92,92,92,92,92,92,92,92,92,92,92,92,92,92,92,92,
92,92,92,92,92,92,92,92,92,92,92,92,92,92,92,92,92,92,92,92
</data>
 </layer>
 <layer id="2" name="Walls" width="20" height="20">
  <data encoding="csv">
0,0,0,0,0,0,0,0,0,0,0,0,0,0,0,0,0,0,0,0,
0,0,0,0,0,0,1,9,9,9,9,9,9,9,9,9,9,4,0,0,
0,0,0,0,0,0,14,15,15,8,15,15,7,15,15,32,15,30,0,0,
0,0,0,0,0,0,27,15,15,31,15,15,15,15,15,15,15,30,0,0,
0,0,0,0,0,0,27,0,0,50,0,87,0,0,39,39,0,30,0,0,
0,0,0,0,0,0,27,0,0,0,0,0,0,0,0,0,0,30,0,0,
0,0,0,0,0,0,27,0,0,0,0,0,0,0,87,0,0,30,0,0,
0,0,0,0,0,0,40,41,41,41,41,41,45,0,44,42,42,43,0,0,
0,0,0,0,0,0,0,0,0,0,0,0,27,0,30,0,0,0,0,0,
0,0,0,0,0,0,0,0,0,0,0,0,27,0,30,0,0,0,0,0,
9,9,9,9,9,9,9,9,9,9,9,9,18,0,19,9,9,9,9,9,
15,15,15,15,15,15,7,15,15,32,15,15,15,0,15,15,15,15,7,15,
15,15,15,15,15,15,15,15,15,15,15,15,15,0,15,15,15,15,15,15,
87,87,0,0,87,0,0,0,0,0,0,0,0,0,0,0,0,87,0,0,
87,87,87,0,0,0,0,0,0,0,87,0,0,0,0,0,0,0,0,0,
42,42,42,42,42,42,45,0,44,42,42,42,42,42,42,42,42,42,42,42,
0,0,0,0,0,0,27,0,30,0,0,0,0,0,0,0,0,0,0,0,
0,0,0,0,0,0,0,0,0,0,0,0,0,0,0,0,0,0,0,0,
0,0,0,0,0,0,0,0,0,0,0,0,0,0,0,0,0,0,0,0,
0,0,0,0,0,0,0,0,0,0,0,0,0,0,0,0,0,0,0,0
</data>
 </layer>
 <objectgroup id="4" name="Interactables">
  <object id="2" name="ProgressBlock2" type="Story_2" x="144" y="64" width="16" height="16"/>
  <object id="3" name="Dialogue30" type="Interactable_Dialogue1x2" x="224" y="64" width="32" height="16"/>
  <object id="6" name="Dialogue32" type="Interactable_Dialogue1x1" x="16" y="208" width="16" height="16"/>
  <object id="7" name="Dialogue33" type="Interactable_Dialogue1x2" x="16" y="224" width="32" height="16"/>
  <object id="8" name="ProgressBlock3" type="Story_3" gid="81" x="112" y="256" width="16" height="16"/>
 </objectgroup>
 <layer id="3" name="Foreground" width="20" height="20">
  <data encoding="csv">
0,0,0,0,0,0,0,0,0,0,0,0,0,0,0,0,0,0,0,0,
0,0,0,0,0,0,0,0,0,0,0,0,0,0,0,0,0,0,0,0,
0,0,0,0,0,0,0,0,0,0,0,0,0,0,0,0,0,0,0,0,
0,0,0,0,0,0,0,0,0,0,0,0,0,0,26,26,0,0,0,0,
0,0,0,0,0,0,0,0,0,0,0,0,0,0,0,0,0,0,0,0,
0,0,0,0,0,0,0,0,0,0,0,0,0,0,0,0,0,0,0,0,
0,0,0,0,0,0,0,0,0,0,0,0,0,0,0,0,0,0,0,0,
0,0,0,0,0,0,0,0,0,0,0,0,0,0,0,0,0,0,0,0,
0,0,0,0,0,0,0,0,0,0,0,0,0,0,0,0,0,0,0,0,
0,0,0,0,0,0,0,0,0,0,0,0,0,0,0,0,0,0,0,0,
0,0,0,0,0,0,0,0,0,0,0,0,0,0,0,0,0,0,0,0,
0,0,0,0,0,0,0,0,0,0,0,0,0,0,0,0,0,0,0,0,
0,0,0,0,0,0,0,0,0,0,0,0,0,0,0,0,0,0,0,0,
0,0,0,0,0,0,0,0,0,0,0,0,0,0,0,0,0,0,0,0,
0,0,0,0,0,0,0,0,0,0,0,0,0,0,0,0,0,0,0,0,
0,0,0,0,0,0,0,0,0,0,0,0,0,0,0,0,0,0,0,0,
0,0,0,0,0,0,0,0,0,0,0,0,0,0,0,0,0,0,0,0,
0,0,0,0,0,0,40,41,43,0,0,0,0,0,0,0,0,0,0,0,
0,0,0,0,0,0,92,92,92,0,0,0,0,0,0,0,0,0,0,0,
0,0,0,0,0,0,0,0,0,0,0,0,0,0,0,0,0,0,0,0
</data>
 </layer>
</map>
