<?xml version="1.0" encoding="UTF-8"?>
<map version="1.10" tiledversion="1.11.2" orientation="orthogonal" renderorder="left-down" width="35" height="30" tilewidth="16" tileheight="16" infinite="0" nextlayerid="5" nextobjectid="19">
 <tileset firstgid="1" source="../../Sprites/CosmicLilac_Tiles.tsx"/>
 <layer id="1" name="Background" width="35" height="30">
  <data encoding="csv">
92,92,92,92,92,92,92,92,92,92,92,92,92,92,92,92,92,92,92,92,92,92,92,92,92,92,92,92,92,92,92,92,92,92,92,
92,92,92,92,92,92,92,92,92,92,92,92,92,92,92,92,92,92,92,92,92,92,92,92,92,92,92,92,92,92,92,92,92,92,92,
92,92,92,92,92,92,92,92,92,92,92,92,92,92,92,92,92,92,92,92,92,92,92,92,92,92,92,92,92,92,92,92,92,92,92,
92,92,92,92,92,92,92,92,92,92,92,92,92,92,92,92,92,92,92,92,92,92,92,92,92,92,92,92,92,92,92,92,92,92,92,
92,92,92,92,92,92,92,92,92,92,92,92,92,92,92,92,92,92,92,92,92,92,92,92,92,92,92,92,92,92,92,92,92,92,92,
92,92,92,92,92,92,92,92,92,92,92,92,92,92,92,92,92,92,92,92,92,92,92,92,92,92,92,92,92,92,92,92,92,92,92,
92,92,92,92,92,92,92,92,92,92,92,92,92,92,92,92,92,92,92,92,92,92,92,92,92,92,92,92,92,92,92,92,92,92,92,
29,29,29,29,29,29,29,29,29,29,29,29,29,29,29,29,29,29,29,29,29,29,29,29,29,29,29,29,29,92,92,92,92,92,92,
29,29,29,29,29,29,29,29,29,29,29,29,29,29,29,29,29,29,29,29,29,29,29,29,29,29,29,29,29,92,92,92,92,92,92,
21,34,21,21,21,21,21,21,21,21,21,34,21,21,20,21,21,20,21,21,20,21,21,20,34,21,20,21,21,92,92,92,92,92,92,
29,29,52,29,29,47,29,29,29,28,29,29,29,29,29,51,29,29,46,29,29,29,47,29,29,46,29,29,29,92,92,92,92,92,92,
92,92,92,92,92,92,49,29,29,29,29,46,29,92,92,92,92,92,92,92,92,92,92,92,92,92,92,92,92,92,92,92,92,92,92,
92,92,92,92,92,92,35,29,29,29,29,29,29,92,92,92,92,92,92,92,92,92,92,92,92,92,92,92,92,92,92,92,92,92,92,
92,92,92,92,92,92,36,29,29,29,29,29,29,29,29,29,29,29,29,29,29,29,29,29,29,29,29,29,29,92,92,92,92,92,92,
92,92,92,92,92,92,35,46,29,29,29,29,29,29,29,29,29,29,29,29,29,29,29,29,29,29,29,29,29,92,92,92,92,92,92,
92,92,92,92,92,92,22,29,29,29,47,29,29,33,20,21,21,20,21,21,20,21,21,20,21,34,20,21,21,92,92,92,92,92,92,
92,92,92,92,92,92,29,29,29,29,29,29,29,29,29,29,47,29,29,46,29,29,29,28,29,29,29,46,29,92,92,92,92,92,92,
92,92,92,92,92,92,49,29,51,29,29,29,29,92,92,92,92,92,92,92,92,92,92,92,92,92,92,92,92,92,92,92,92,92,92,
92,92,92,92,92,92,36,29,29,29,29,46,29,92,92,92,92,92,92,92,92,92,92,92,92,92,92,92,92,92,92,92,92,92,92,
29,29,29,29,29,29,36,29,29,29,29,29,29,29,29,29,29,29,29,29,29,29,29,29,29,29,29,29,29,92,92,92,92,92,92,
29,29,29,29,29,29,35,29,29,29,52,29,29,29,29,29,29,29,29,29,29,29,29,29,29,29,29,29,29,92,92,92,92,92,92,
21,20,21,21,20,21,22,47,29,29,29,29,29,33,20,21,34,20,21,21,20,21,21,20,21,21,20,34,21,92,92,92,92,92,92,
29,29,29,46,29,29,29,29,29,46,29,29,29,29,29,29,29,46,52,29,29,29,47,29,51,29,46,29,29,92,92,92,92,92,92,
92,92,92,92,92,92,92,92,92,92,92,92,92,92,92,92,92,92,92,92,92,92,92,92,92,92,92,92,92,92,92,92,92,92,92,
92,92,92,92,92,92,92,92,92,92,92,92,92,92,92,92,92,92,92,92,92,92,92,92,92,92,92,92,92,92,92,92,92,92,92,
92,92,92,92,92,92,92,92,92,92,92,92,92,92,92,92,92,92,92,92,92,92,92,92,92,92,92,92,92,92,92,92,92,92,92,
92,92,92,92,92,92,92,92,92,92,92,92,92,92,92,92,92,92,92,92,92,92,92,92,92,92,92,92,92,92,92,92,92,92,92,
92,92,92,92,92,92,92,92,92,92,92,92,92,92,92,92,92,92,92,92,92,92,92,92,92,92,92,92,92,92,92,92,92,92,92,
92,92,92,92,92,92,92,92,92,92,92,92,92,92,92,92,92,92,92,92,92,92,92,92,92,92,92,92,92,92,92,92,92,92,92,
92,92,92,92,92,92,92,92,92,92,92,92,92,92,92,92,92,92,92,92,92,92,92,92,92,92,92,92,92,92,92,92,92,92,92
</data>
 </layer>
 <layer id="2" name="Walls" width="35" height="30">
  <data encoding="csv">
0,0,0,0,0,0,0,0,0,0,0,0,0,0,0,0,0,0,0,0,0,0,0,0,0,0,0,0,0,0,0,0,0,0,0,
0,0,0,0,0,0,0,0,0,0,0,0,0,0,0,0,0,0,0,0,0,0,0,0,0,0,0,0,0,0,0,0,0,0,0,
0,0,0,0,0,0,0,0,0,0,0,0,0,0,0,0,0,0,0,0,0,0,0,0,0,0,0,0,0,0,0,0,0,0,0,
0,0,0,0,0,0,0,0,0,0,0,0,0,0,0,0,0,0,0,0,0,0,0,0,0,0,0,0,0,0,0,0,0,0,0,
0,0,0,0,0,0,0,0,0,0,0,0,0,0,0,0,0,0,0,0,0,0,0,0,0,0,0,0,0,0,0,0,0,0,0,
0,0,0,0,0,0,0,0,0,0,0,0,0,0,0,0,0,0,0,0,0,0,0,0,0,0,0,0,0,0,0,0,0,0,0,
9,9,9,9,9,9,9,9,9,9,9,9,9,9,9,9,9,9,9,9,9,9,9,9,9,9,9,9,9,4,0,0,0,0,0,
15,7,15,15,7,15,15,15,15,7,15,15,15,15,7,15,15,7,15,15,7,15,15,7,15,15,7,15,15,30,0,0,0,0,0,
15,15,15,15,15,15,15,15,12,12,12,15,15,15,15,66,15,15,66,15,15,66,15,15,66,15,15,66,15,30,0,0,0,0,0,
0,0,0,0,0,0,0,0,0,0,0,0,0,0,0,0,0,0,0,0,0,0,0,0,0,0,0,0,0,30,0,0,0,0,0,
0,0,0,0,0,0,0,0,0,0,0,0,0,0,0,0,0,0,0,0,0,0,0,0,0,0,0,0,0,30,0,0,0,0,0,
41,41,41,41,41,45,0,0,0,0,0,0,0,44,41,41,41,41,41,41,41,41,41,41,41,41,41,41,41,43,0,0,0,0,0,
0,0,0,0,0,27,0,0,0,0,0,0,0,19,9,9,9,9,9,9,9,9,9,9,9,9,9,9,9,4,0,0,0,0,0,
0,0,0,0,0,27,0,0,0,0,0,0,0,15,7,15,15,7,15,15,7,15,15,7,15,15,7,15,15,30,0,0,0,0,0,
0,0,0,0,1,18,0,0,0,0,0,0,0,15,15,66,15,15,66,15,15,66,15,15,66,15,15,66,15,30,0,0,0,0,0,
0,0,0,0,27,91,0,0,0,0,0,0,0,0,0,0,0,0,0,0,0,0,0,0,0,0,0,0,0,30,0,0,0,0,0,
0,0,0,0,27,91,0,0,0,0,0,0,0,0,0,0,0,0,0,0,0,0,0,0,0,0,0,0,0,30,0,0,0,0,0,
0,0,0,0,40,45,0,0,0,0,0,0,0,44,41,41,41,41,41,41,41,41,41,41,41,41,41,41,41,43,0,0,0,0,0,
9,9,9,9,9,18,0,0,0,0,0,0,0,19,9,9,9,9,9,9,9,9,9,9,9,9,9,9,9,4,0,0,0,0,0,
15,7,15,15,7,15,0,0,0,0,0,0,0,15,7,15,15,7,15,15,7,15,15,7,15,15,7,15,15,30,0,0,0,0,0,
15,15,15,15,15,15,0,0,0,0,0,0,0,15,15,66,15,15,66,15,15,66,15,15,66,15,15,66,15,30,0,0,0,0,0,
0,0,0,0,0,0,0,0,0,0,0,0,0,0,0,0,0,0,0,0,0,0,0,0,0,0,0,0,0,30,0,0,0,0,0,
0,0,0,0,0,0,0,0,0,0,0,0,0,0,0,0,0,0,0,0,0,0,0,0,0,0,0,0,0,30,0,0,0,0,0,
41,41,41,41,41,41,41,41,41,41,41,41,41,41,41,41,41,41,41,41,41,41,41,41,41,41,41,41,41,43,0,0,0,0,0,
0,0,0,0,0,0,0,0,0,0,0,0,0,0,0,0,0,0,0,0,0,0,0,0,0,0,0,0,0,0,0,0,0,0,0,
0,0,0,0,0,0,0,0,0,0,0,0,0,0,0,0,0,0,0,0,0,0,0,0,0,0,0,0,0,0,0,0,0,0,0,
0,0,0,0,0,0,0,0,0,0,0,0,0,0,0,0,0,0,0,0,0,0,0,0,0,0,0,0,0,0,0,0,0,0,0,
0,0,0,0,0,0,0,0,0,0,0,0,0,0,0,0,0,0,0,0,0,0,0,0,0,0,0,0,0,0,0,0,0,0,0,
0,0,0,0,0,0,0,0,0,0,0,0,0,0,0,0,0,0,0,0,0,0,0,0,0,0,0,0,0,0,0,0,0,0,0,
0,0,0,0,0,0,0,0,0,0,0,0,0,0,0,0,0,0,0,0,0,0,0,0,0,0,0,0,0,0,0,0,0,0,0
</data>
 </layer>
 <objectgroup id="4" name="Interactables">
  <object id="1" name="Chest5" type="Interactable_Chest_Special" gid="65" x="144" y="160" width="16" height="16"/>
  <object id="2" name="Dialogue15" type="Interactable_Dialogue1x1" x="240" y="320" width="16" height="16"/>
  <object id="3" name="Dialogue14" type="Interactable_Dialogue1x2" x="80" y="240" width="16" height="32"/>
  <object id="4" name="Dialogue16" type="Interactable_Dialogue1x1" x="288" y="320" width="16" height="16"/>
  <object id="5" name="Dialogue18" type="Interactable_Dialogue1x1" x="384" y="320" width="16" height="16"/>
  <object id="6" name="Dialogue17" type="Interactable_Dialogue1x1" x="336" y="320" width="16" height="16"/>
  <object id="7" name="Dialogue19" type="Interactable_Dialogue1x1" x="432" y="320" width="16" height="16"/>
  <object id="8" name="Dialogue20" type="Interactable_Dialogue1x1" x="432" y="224" width="16" height="16"/>
  <object id="9" name="Dialogue21" type="Interactable_Dialogue1x1" x="336" y="224" width="16" height="16"/>
  <object id="10" name="Dialogue22" type="Interactable_Dialogue1x1" x="288" y="224" width="16" height="16"/>
  <object id="11" name="Dialogue24" type="Interactable_Dialogue1x1" x="240" y="128" width="16" height="16"/>
  <object id="12" name="Dialogue23" type="Interactable_Dialogue1x1" x="240" y="224" width="16" height="16"/>
  <object id="13" name="Dialogue25" type="Interactable_Dialogue1x1" x="288" y="128" width="16" height="16"/>
  <object id="14" name="Dialogue26" type="Interactable_Dialogue1x1" x="336" y="128" width="16" height="16"/>
  <object id="15" name="Dialogue27" type="Interactable_Dialogue1x1" x="384" y="128" width="16" height="16"/>
  <object id="16" name="Dialogue29" type="Interactable_Dialogue1x3" x="128" y="128" width="48" height="16"/>
  <object id="17" name="Dialogue28" type="Interactable_Dialogue1x1" x="432" y="128" width="16" height="16"/>
  <object id="18" name="SecretPassage3" type="Interactable_Warp1x1" x="384" y="224" width="16" height="16"/>
 </objectgroup>
 <layer id="3" name="Foreground" width="35" height="30">
  <data encoding="csv">
0,0,0,0,0,0,0,0,0,0,0,0,0,0,0,0,0,0,0,0,0,0,0,0,0,0,0,0,0,0,0,0,0,0,0,
0,0,0,0,0,0,0,0,0,0,0,0,0,0,0,0,0,0,0,0,0,0,0,0,0,0,0,0,0,0,0,0,0,0,0,
0,0,0,0,0,0,0,0,0,0,0,0,0,0,0,0,0,0,0,0,0,0,0,0,0,0,0,0,0,0,0,0,0,0,0,
0,0,0,0,0,0,0,0,0,0,0,0,0,0,0,0,0,0,0,0,0,0,0,0,0,0,0,0,0,0,0,0,0,0,0,
0,0,0,0,0,0,0,0,0,0,0,0,0,0,0,0,0,0,0,0,0,0,0,0,0,0,0,0,0,0,0,0,0,0,0,
0,0,0,0,0,0,0,0,0,0,0,0,0,0,0,0,0,0,0,0,0,0,0,0,0,0,0,0,0,0,0,0,0,0,0,
0,0,0,0,0,0,0,0,0,0,0,0,0,0,0,0,0,0,0,0,0,0,0,0,0,0,0,0,0,0,0,0,0,0,0,
0,0,0,0,0,0,0,0,0,0,0,0,0,0,0,0,0,0,0,0,0,0,0,0,0,0,0,0,0,0,0,0,0,0,0,
0,0,0,0,0,0,0,0,0,0,0,0,0,0,0,0,0,0,0,0,0,0,0,0,0,0,0,0,0,0,0,0,0,0,0,
0,0,0,0,0,0,0,0,0,0,0,0,0,0,0,0,0,0,0,0,0,0,0,0,0,0,0,0,0,0,0,0,0,0,0,
0,0,0,0,0,0,0,0,0,0,0,0,0,0,0,0,0,0,0,0,0,0,0,0,0,0,0,0,0,0,0,0,0,0,0,
0,0,0,0,0,0,0,0,0,0,0,0,0,0,0,0,0,0,0,0,0,0,0,0,0,0,0,0,0,0,0,0,0,0,0,
0,0,0,0,0,0,0,0,0,0,0,0,0,0,0,0,0,0,0,0,0,0,0,0,0,0,0,0,0,0,0,0,0,0,0,
0,0,0,0,0,0,0,0,0,0,0,0,0,0,0,0,0,0,0,0,0,0,0,0,0,0,0,0,0,0,0,0,0,0,0,
0,0,0,0,0,0,0,0,0,0,0,0,0,0,0,0,0,0,0,0,0,0,0,0,0,0,0,0,0,0,0,0,0,0,0,
0,0,0,0,0,0,0,0,0,0,0,0,0,0,0,0,0,0,0,0,0,0,0,0,0,0,0,0,0,0,0,0,0,0,0,
0,0,0,0,0,0,0,0,0,0,0,0,0,0,0,0,0,0,0,0,0,0,0,0,0,0,0,0,0,0,0,0,0,0,0,
0,0,0,0,0,0,0,0,0,0,0,0,0,0,0,0,0,0,0,0,0,0,0,0,0,0,0,0,0,0,0,0,0,0,0,
0,0,0,0,0,0,0,0,0,0,0,0,0,0,0,0,0,0,0,0,0,0,0,0,0,0,0,0,0,0,0,0,0,0,0,
0,0,0,0,0,0,0,0,0,0,0,0,0,0,0,0,0,0,0,0,0,0,0,0,0,0,0,0,0,0,0,0,0,0,0,
0,0,0,0,0,0,0,0,0,0,0,0,0,0,0,0,0,0,0,0,0,0,0,0,0,0,0,0,0,0,0,0,0,0,0,
0,0,0,0,0,0,0,0,0,0,0,0,0,0,0,0,0,0,0,0,0,0,0,0,0,0,0,0,0,0,0,0,0,0,0,
0,0,0,0,0,0,0,0,0,0,0,0,0,0,0,0,0,0,0,0,0,0,0,0,0,0,0,0,0,0,0,0,0,0,0,
0,0,0,0,0,0,0,0,0,0,0,0,0,0,0,0,0,0,0,0,0,0,0,0,0,0,0,0,0,0,0,0,0,0,0,
0,0,0,0,0,0,0,0,0,0,0,0,0,0,0,0,0,0,0,0,0,0,0,0,0,0,0,0,0,0,0,0,0,0,0,
0,0,0,0,0,0,0,0,0,0,0,0,0,0,0,0,0,0,0,0,0,0,0,0,0,0,0,0,0,0,0,0,0,0,0,
0,0,0,0,0,0,0,0,0,0,0,0,0,0,0,0,0,0,0,0,0,0,0,0,0,0,0,0,0,0,0,0,0,0,0,
0,0,0,0,0,0,0,0,0,0,0,0,0,0,0,0,0,0,0,0,0,0,0,0,0,0,0,0,0,0,0,0,0,0,0,
0,0,0,0,0,0,0,0,0,0,0,0,0,0,0,0,0,0,0,0,0,0,0,0,0,0,0,0,0,0,0,0,0,0,0,
0,0,0,0,0,0,0,0,0,0,0,0,0,0,0,0,0,0,0,0,0,0,0,0,0,0,0,0,0,0,0,0,0,0,0
</data>
 </layer>
</map>
