<?xml version="1.0" encoding="UTF-8"?>
<map version="1.10" tiledversion="1.11.2" orientation="orthogonal" renderorder="left-down" width="30" height="30" tilewidth="16" tileheight="16" infinite="0" nextlayerid="6" nextobjectid="16">
 <tileset firstgid="1" source="../../Sprites/CosmicLilac_Tiles.tsx"/>
 <layer id="1" name="Background" width="30" height="30">
  <data encoding="csv">
92,92,92,92,92,92,92,92,92,92,92,92,92,92,92,92,92,92,92,92,92,92,92,92,92,92,92,92,92,92,
92,92,92,92,92,92,92,92,92,92,92,92,92,92,92,92,92,92,92,92,92,92,92,92,92,92,92,92,92,92,
92,92,92,92,92,92,92,92,92,92,92,92,92,92,92,92,92,92,92,92,92,92,92,92,92,92,92,92,92,92,
92,92,92,92,92,92,92,92,92,92,92,92,92,92,92,92,92,92,92,92,92,92,92,92,92,92,92,92,92,92,
92,92,92,92,92,92,92,92,92,92,92,92,92,92,92,92,92,92,92,92,15,15,15,15,15,92,92,92,92,92,
92,92,92,92,92,92,92,92,92,92,92,92,92,92,92,92,92,92,92,92,15,15,15,15,15,92,92,92,92,92,
92,92,92,92,92,92,92,92,92,92,92,92,92,92,92,92,92,92,92,92,38,29,29,29,29,92,92,92,92,92,
92,92,92,92,92,92,92,92,92,92,92,92,92,92,92,92,92,92,92,92,29,29,29,47,29,92,92,92,92,92,
92,92,92,92,92,92,92,92,92,92,92,92,92,92,92,92,92,92,92,92,46,29,29,29,29,92,92,92,92,92,
92,92,92,92,92,92,92,92,92,92,92,92,92,92,92,92,92,92,92,92,29,29,52,29,29,92,92,92,92,92,
92,92,92,92,92,92,92,92,92,92,92,92,92,92,92,92,92,92,92,92,29,29,29,29,46,92,92,92,92,92,
92,92,92,92,92,29,29,29,29,92,92,29,29,29,29,92,92,92,92,92,29,29,29,29,29,92,92,92,92,92,
92,92,92,92,92,23,21,20,21,92,92,23,20,21,21,92,92,92,92,92,46,48,29,29,29,92,92,92,92,92,
92,92,92,92,92,36,47,56,38,92,92,35,56,29,47,92,92,92,92,92,47,46,29,29,38,92,92,92,92,92,
92,92,92,92,92,36,48,29,29,92,92,36,46,48,38,92,92,92,92,92,51,47,46,29,29,92,92,92,92,92,
92,92,92,92,92,35,52,46,29,92,92,36,29,46,47,92,92,92,92,92,47,48,29,29,29,92,92,92,92,92,
92,92,92,92,92,92,92,92,92,92,92,92,92,92,92,92,92,92,92,92,29,46,29,29,29,92,92,92,92,92,
92,92,92,92,92,92,92,92,92,92,92,92,92,92,92,92,92,92,92,92,29,29,52,29,46,92,92,92,92,92,
92,92,92,92,92,15,15,15,15,15,15,15,15,15,15,92,92,92,92,92,29,29,29,29,29,92,92,92,92,92,
92,92,92,92,92,15,15,15,15,15,15,15,29,15,15,92,92,92,92,92,29,29,29,29,29,92,92,92,92,92,
92,92,92,92,92,23,21,21,20,21,21,20,21,6,6,92,92,92,92,92,46,29,29,29,29,92,92,92,92,92,
92,92,92,92,92,35,29,29,29,46,29,51,29,6,6,92,92,92,92,92,29,29,29,52,29,92,92,92,92,92,
92,92,92,92,92,36,46,29,29,29,29,29,29,6,6,92,92,92,92,92,29,29,29,47,29,92,92,92,92,92,
92,92,92,92,92,36,29,29,47,29,29,29,29,6,6,92,92,92,92,92,29,38,29,29,29,92,92,92,92,92,
92,92,92,92,92,36,52,29,29,29,29,46,29,6,6,92,92,92,92,92,29,29,29,29,29,92,92,92,92,92,
92,92,92,92,92,35,29,29,29,29,29,29,29,6,6,92,92,92,92,92,29,29,29,29,46,92,92,92,92,92,
92,92,92,92,92,92,92,49,29,29,92,92,92,92,92,92,92,92,92,92,92,92,29,92,92,92,92,92,92,92,
92,92,92,92,92,92,92,36,29,28,92,92,92,92,92,92,92,92,92,92,92,92,46,92,92,92,92,92,92,92,
92,92,92,92,92,92,92,35,29,29,92,92,92,92,92,92,92,92,92,92,92,92,29,92,92,92,92,92,92,92,
92,92,92,92,92,92,92,83,83,83,92,92,92,92,92,92,92,92,92,92,92,92,83,92,92,92,92,92,92,92
</data>
 </layer>
 <layer id="2" name="Walls" width="30" height="30">
  <data encoding="csv">
0,0,0,0,0,0,0,0,0,0,0,0,0,0,0,0,0,0,0,0,0,0,0,0,0,0,0,0,0,0,
0,0,0,0,0,0,0,0,0,0,0,0,0,0,0,0,0,0,0,0,0,0,0,0,0,0,0,0,0,0,
0,0,0,0,0,0,0,0,0,0,0,0,0,0,0,0,0,0,0,0,0,0,0,0,0,0,0,0,0,0,
0,0,0,0,0,0,0,0,0,0,0,0,0,0,0,0,0,0,0,1,2,9,9,2,3,4,0,0,0,0,
0,0,0,0,0,0,0,0,0,0,0,0,0,0,0,0,0,0,0,27,15,15,15,15,15,30,0,0,0,0,
0,0,0,0,0,0,0,0,0,0,0,0,0,0,0,0,0,0,0,27,15,15,66,13,15,30,0,0,0,0,
0,0,0,0,0,0,0,0,0,0,0,0,0,0,0,0,0,0,0,27,0,0,0,0,0,30,0,0,0,0,
0,0,0,0,0,0,0,0,0,0,0,0,0,0,0,0,0,0,0,27,0,0,0,0,0,30,0,0,0,0,
0,0,0,0,0,0,0,0,0,0,0,0,0,0,0,0,0,0,0,27,0,0,0,0,0,30,0,0,0,0,
0,0,0,0,1,9,9,9,9,4,1,9,9,9,9,4,0,0,0,27,0,0,0,0,0,30,0,0,0,0,
0,0,0,0,14,15,15,7,15,30,27,15,7,15,15,30,0,0,0,27,0,0,0,0,0,30,0,0,0,0,
0,0,0,0,14,15,8,15,15,30,27,15,15,8,15,30,0,0,0,27,0,0,0,0,0,30,0,0,0,0,
0,0,0,0,14,0,0,0,0,30,27,0,0,0,0,30,0,0,0,27,0,0,0,0,0,30,0,0,0,0,
0,0,0,0,14,0,0,0,0,30,27,0,0,0,0,30,0,0,0,27,0,0,0,0,0,30,0,0,0,0,
0,0,0,0,14,0,0,0,0,30,27,0,0,0,0,30,0,0,0,27,0,0,0,0,0,30,0,0,0,0,
0,0,0,0,14,0,0,0,0,30,27,0,0,0,0,30,0,0,0,27,0,0,0,0,0,30,0,0,0,0,
0,0,0,0,40,42,42,42,42,43,40,41,41,41,41,43,0,0,0,27,0,0,0,0,0,30,0,0,0,0,
0,0,0,0,1,9,9,9,9,9,9,9,9,9,9,4,0,0,0,27,0,0,0,0,0,30,0,0,0,0,
0,0,0,0,14,15,15,15,7,15,15,7,15,15,15,17,0,0,0,27,0,0,0,0,0,30,0,0,0,0,
0,0,0,0,14,15,13,66,15,15,15,15,66,13,15,17,0,0,0,27,0,0,0,0,0,30,0,0,0,0,
0,0,0,0,27,0,0,0,0,0,0,0,0,0,0,17,0,0,0,27,0,0,0,0,0,30,0,0,0,0,
0,0,0,0,27,0,0,0,0,0,0,0,0,0,0,17,0,0,0,27,0,0,0,0,0,30,0,0,0,0,
0,0,0,0,27,0,0,0,0,0,0,0,0,0,37,17,0,0,0,27,0,0,0,0,0,30,0,0,0,0,
0,0,0,0,27,0,0,0,0,0,0,0,0,0,0,17,0,0,0,27,0,0,0,0,0,30,0,0,0,0,
0,0,0,0,27,0,0,0,0,0,0,0,0,0,37,17,0,0,0,27,0,0,0,0,0,30,0,0,0,0,
0,0,0,0,27,0,0,0,0,0,0,0,0,0,0,17,0,0,0,27,0,0,0,0,0,30,0,0,0,0,
0,0,0,0,40,42,45,0,0,0,44,42,42,42,42,43,0,0,0,40,42,45,0,44,42,43,0,0,0,0,
0,0,0,0,0,0,27,0,0,0,17,0,0,0,0,0,0,0,0,0,0,27,0,30,0,0,0,0,0,0,
0,0,0,0,0,0,27,0,0,0,17,0,0,0,0,0,0,0,0,0,0,27,0,30,0,0,0,0,0,0,
0,0,0,0,0,0,27,0,0,0,17,0,0,0,0,0,0,0,0,0,0,27,0,30,0,0,0,0,0,0
</data>
 </layer>
 <objectgroup id="4" name="Interactables">
  <object id="1" name="Chest3" type="Interactable_Chest_Special" gid="65" x="208" y="208" width="16" height="16"/>
  <object id="2" name="Chest4" type="Interactable_Chest_Standard" gid="65" x="352" y="128" width="16" height="16"/>
  <object id="3" name="SecretPassageEntrance1" type="Interactable_Warp1x1" x="320" y="224">
   <polygon points="0,0 0,16 -16,16 -16,0"/>
  </object>
  <object id="4" name="SecretPassageEntrance2" type="Interactable_Warp1x1" x="311.75" y="226.5">
   <polygon points="-55.75,-2.5 -55.75,13.5 -71.75,13.5 -71.75,-2.5"/>
  </object>
  <object id="5" name="Dialogue6" type="Interactable_Dialogue1x1" x="224" y="352">
   <polygon points="0,0 16,0 16,16 0,16"/>
  </object>
  <object id="6" name="Dialogue5" type="Interactable_Dialogue1x1" x="247.818" y="359.636">
   <polygon points="-23.8182,24.3636 -7.81818,24.3636 -7.81818,40.3636 -23.8182,40.3636"/>
  </object>
  <object id="7" name="Dialogue7" type="Interactable_Dialogue1x1" x="243" y="402.25">
   <polygon points="-51,-98.25 -35,-98.25 -35,-82.25 -51,-82.25"/>
  </object>
  <object id="8" name="Dialogue8" type="Interactable_Dialogue1x1" x="213" y="311.5">
   <polygon points="-101,-7.5 -85,-7.5 -85,8.5 -101,8.5"/>
  </object>
  <object id="9" name="Dialogue10" type="Interactable_Dialogue1x1" x="138.75" y="312.25">
   <polygon points="-42.75,-8.25 -26.75,-8.25 -26.75,7.75 -42.75,7.75"/>
  </object>
  <object id="10" name="Dialogue9" type="Interactable_Dialogue1x1" x="142.75" y="321.75">
   <polygon points="65.25,-17.75 81.25,-17.75 81.25,-1.75 65.25,-1.75"/>
  </object>
  <object id="11" name="Dialogue11" type="Interactable_Dialogue1x1" x="236.5" y="315.75">
   <polygon points="-44.5,-59.75 -28.5,-59.75 -28.5,-43.75 -44.5,-43.75"/>
  </object>
  <object id="12" name="Dialogue12" type="Interactable_Dialogue1x1" x="208.75" y="257.25">
   <polygon points="143.25,-177.25 159.25,-177.25 159.25,-161.25 143.25,-161.25"/>
  </object>
  <object id="14" name="Dialogue13" type="Interactable_Dialogue1x1" x="353.273" y="80.7273">
   <polygon points="14.7273,-0.727273 30.7273,-0.727273 30.7273,15.2727 14.7273,15.2727"/>
  </object>
  <object id="15" name="AutoDialogue1" type="Trigger_Dialogue3x5" x="320" y="320">
   <polygon points="0,0 0,-48 80,-48 80,0"/>
  </object>
 </objectgroup>
 <layer id="3" name="Foreground" width="30" height="30">
  <data encoding="csv">
0,0,0,0,0,0,0,0,0,0,0,0,0,0,0,0,0,0,0,0,0,0,0,0,0,0,0,0,0,0,
0,0,0,0,0,0,0,0,0,0,0,0,0,0,0,0,0,0,0,0,0,0,0,0,0,0,0,0,0,0,
0,0,0,0,0,0,0,0,0,0,0,0,0,0,0,0,0,0,0,0,0,0,0,0,0,0,0,0,0,0,
0,0,0,0,0,0,0,0,0,0,0,0,0,0,0,0,0,0,0,0,0,0,0,0,0,0,0,0,0,0,
0,0,0,0,0,0,0,0,0,0,0,0,0,0,0,0,0,0,0,0,62,63,0,0,0,0,0,0,0,0,
0,0,0,0,0,0,0,0,0,0,0,0,0,0,0,0,0,0,0,0,0,0,0,0,0,0,0,0,0,0,
0,0,0,0,0,0,0,0,0,0,0,0,0,0,0,0,0,0,0,0,0,0,0,0,0,0,0,0,0,0,
0,0,0,0,0,0,0,0,0,0,0,0,0,0,0,0,0,0,0,0,0,0,0,0,0,0,0,0,0,0,
0,0,0,0,0,0,0,0,0,0,0,0,0,0,0,0,0,0,0,0,0,0,0,0,0,0,0,0,0,0,
0,0,0,0,0,0,0,0,0,0,0,0,0,0,0,0,0,0,0,0,0,0,0,0,0,0,0,0,0,0,
0,0,0,0,0,0,0,0,0,0,0,0,0,0,0,0,0,0,0,0,0,0,0,0,0,0,0,0,0,0,
0,0,0,0,0,0,0,0,0,0,0,0,0,0,0,0,0,0,0,0,0,0,0,0,0,0,0,0,0,0,
0,0,0,0,0,0,0,0,0,0,0,0,0,0,0,0,0,0,0,0,0,0,0,0,0,0,0,0,0,0,
0,0,0,0,0,0,0,0,0,0,0,0,0,0,0,0,0,0,0,0,0,0,0,0,0,0,0,0,0,0,
0,0,0,0,0,0,0,0,0,0,0,0,0,0,0,0,0,0,0,0,0,0,0,0,0,0,0,0,0,0,
0,0,0,0,0,0,0,0,0,0,0,0,0,0,0,0,0,0,0,0,0,0,0,0,0,0,0,0,0,0,
0,0,0,0,0,0,0,0,0,0,0,0,0,0,0,0,0,0,0,0,0,0,0,0,0,0,0,0,0,0,
0,0,0,0,0,0,0,0,0,0,0,0,0,0,0,0,0,0,0,0,0,0,0,0,0,0,0,0,0,0,
0,0,0,0,0,0,0,0,0,0,0,0,0,0,0,0,0,0,0,0,0,0,0,0,0,0,0,0,0,0,
0,0,0,0,0,0,0,0,0,0,0,0,0,0,0,0,0,0,0,0,0,0,0,0,0,0,0,0,0,0,
0,0,0,0,0,0,0,0,0,0,0,0,0,0,0,0,0,0,0,0,0,0,0,0,0,0,0,0,0,0,
0,0,0,0,0,0,0,0,0,0,0,0,0,0,24,0,0,0,0,0,0,0,0,0,0,0,0,0,0,0,
0,0,0,0,0,0,0,0,0,0,0,0,0,0,0,0,0,0,0,0,0,0,0,0,0,0,0,0,0,0,
0,0,0,0,0,0,0,0,0,0,0,0,0,0,24,0,0,0,0,0,0,0,0,0,0,0,0,0,0,0,
0,0,0,0,0,0,0,0,0,0,0,0,0,0,0,0,0,0,0,0,0,0,0,0,0,0,0,0,0,0,
0,0,0,0,0,0,0,0,0,0,0,0,0,0,0,0,0,0,0,0,0,0,0,0,0,0,0,0,0,0,
0,0,0,0,0,0,0,0,0,0,0,0,0,0,0,0,0,0,0,0,0,0,0,0,0,0,0,0,0,0,
0,0,0,0,0,0,0,0,0,0,0,0,0,0,0,0,0,0,0,0,0,0,0,0,0,0,0,0,0,0,
0,0,0,0,0,0,0,0,0,0,0,0,0,0,0,0,0,0,0,0,0,0,0,0,0,0,0,0,0,0,
0,0,0,0,0,0,0,0,0,0,0,0,0,0,0,0,0,0,0,0,0,0,0,0,0,0,0,0,0,0
</data>
 </layer>
 <layer id="5" name="Cover" width="30" height="30" visible="0">
  <data encoding="csv">
0,0,0,0,0,0,0,0,0,0,0,0,0,0,0,0,0,0,0,0,0,0,0,0,0,0,0,0,0,0,
0,0,0,0,0,0,0,0,0,0,0,0,0,0,0,0,0,0,0,0,0,0,0,0,0,0,0,0,0,0,
0,0,0,0,0,0,0,0,0,0,0,0,0,0,0,0,0,0,0,0,0,0,0,0,0,0,0,0,0,0,
0,0,0,0,0,0,0,0,0,0,0,0,0,0,0,0,0,0,0,0,0,0,0,0,0,0,0,0,0,0,
0,0,0,0,0,0,0,0,0,0,0,0,0,0,0,0,0,0,0,0,0,0,0,0,0,0,0,0,0,0,
0,0,0,0,0,0,0,0,0,0,0,0,0,0,0,0,0,0,0,0,0,0,0,0,0,0,0,0,0,0,
0,0,0,0,0,0,0,0,0,0,0,0,0,0,0,0,0,0,0,0,0,0,0,0,0,0,0,0,0,0,
0,0,0,0,0,0,0,0,0,0,0,0,0,0,0,0,0,0,0,0,0,0,0,0,0,0,0,0,0,0,
0,0,0,0,0,0,0,0,0,0,0,0,0,0,0,0,0,0,0,0,0,0,0,0,0,0,0,0,0,0,
0,0,0,0,92,92,92,92,92,92,92,92,92,92,92,92,0,0,0,0,0,0,0,0,0,0,0,0,0,0,
0,0,0,0,92,92,92,92,92,92,92,92,92,92,92,92,0,0,0,0,0,0,0,0,0,0,0,0,0,0,
0,0,0,0,92,92,92,92,92,92,92,92,92,92,92,92,0,0,0,0,0,0,0,0,0,0,0,0,0,0,
0,0,0,0,92,92,92,92,92,92,92,92,92,92,92,92,0,0,0,0,0,0,0,0,0,0,0,0,0,0,
0,0,0,0,92,92,92,92,92,92,92,92,92,92,92,92,0,0,0,0,0,0,0,0,0,0,0,0,0,0,
0,0,0,0,92,92,92,92,92,92,92,92,92,92,92,92,0,0,0,0,0,0,0,0,0,0,0,0,0,0,
0,0,0,0,92,92,92,92,92,92,92,92,92,92,92,92,0,0,0,0,0,0,0,0,0,0,0,0,0,0,
0,0,0,0,92,92,92,92,92,92,92,92,92,92,92,92,0,0,0,0,0,0,0,0,0,0,0,0,0,0,
0,0,0,0,0,0,0,0,0,0,0,0,0,0,0,0,0,0,0,0,0,0,0,0,0,0,0,0,0,0,
0,0,0,0,0,0,0,0,0,0,0,0,0,0,0,0,0,0,0,0,0,0,0,0,0,0,0,0,0,0,
0,0,0,0,0,0,0,0,0,0,0,0,0,0,0,0,0,0,0,0,0,0,0,0,0,0,0,0,0,0,
0,0,0,0,0,0,0,0,0,0,0,0,0,0,0,0,0,0,0,0,0,0,0,0,0,0,0,0,0,0,
0,0,0,0,0,0,0,0,0,0,0,0,0,0,0,0,0,0,0,0,0,0,0,0,0,0,0,0,0,0,
0,0,0,0,0,0,0,0,0,0,0,0,0,0,0,0,0,0,0,0,0,0,0,0,0,0,0,0,0,0,
0,0,0,0,0,0,0,0,0,0,0,0,0,0,0,0,0,0,0,0,0,0,0,0,0,0,0,0,0,0,
0,0,0,0,0,0,0,0,0,0,0,0,0,0,0,0,0,0,0,0,0,0,0,0,0,0,0,0,0,0,
0,0,0,0,0,0,0,0,0,0,0,0,0,0,0,0,0,0,0,0,0,0,0,0,0,0,0,0,0,0,
0,0,0,0,0,0,0,0,0,0,0,0,0,0,0,0,0,0,0,0,0,0,0,0,0,0,0,0,0,0,
0,0,0,0,0,0,0,0,0,0,0,0,0,0,0,0,0,0,0,0,0,0,0,0,0,0,0,0,0,0,
0,0,0,0,0,0,0,0,0,0,0,0,0,0,0,0,0,0,0,0,0,0,0,0,0,0,0,0,0,0,
0,0,0,0,0,0,0,0,0,0,0,0,0,0,0,0,0,0,0,0,0,0,0,0,0,0,0,0,0,0
</data>
 </layer>
</map>
