<?xml version="1.0" encoding="UTF-8"?>
<map version="1.10" tiledversion="1.11.2" orientation="orthogonal" renderorder="left-down" width="80" height="30" tilewidth="16" tileheight="16" infinite="0" nextlayerid="5" nextobjectid="10">
 <tileset firstgid="1" source="../../Sprites/CosmicLilac_Tiles.tsx"/>
 <layer id="2" name="Background" width="80" height="30">
  <data encoding="csv">
92,92,92,92,92,92,92,92,92,92,92,92,92,92,92,92,92,92,92,92,92,92,92,92,92,92,92,92,82,82,82,92,92,92,92,92,92,92,92,92,92,92,92,92,92,92,92,92,92,92,92,92,92,92,92,82,92,92,92,92,92,92,92,92,92,92,92,92,92,92,92,92,92,92,36,92,92,92,92,92,
92,92,92,92,92,92,92,92,92,92,92,92,92,92,92,92,92,92,92,92,92,92,92,92,92,92,92,92,49,29,29,92,92,92,92,92,92,92,92,92,92,92,92,92,92,92,92,92,92,92,92,92,92,92,92,49,92,92,92,92,92,92,92,92,92,92,92,92,92,92,92,92,92,92,36,92,92,92,92,92,
92,92,92,92,92,92,92,92,92,92,92,92,92,92,92,92,92,92,92,92,92,92,92,92,92,92,92,92,36,47,29,92,92,92,92,92,92,92,92,92,92,92,92,92,92,92,92,92,92,92,92,92,92,92,92,36,92,92,92,92,92,92,92,92,92,92,92,92,92,92,92,92,92,92,36,92,92,92,92,92,
92,92,92,92,92,92,92,92,92,92,92,92,92,92,92,92,92,92,92,92,92,92,92,92,92,92,92,92,36,29,29,92,92,92,92,92,92,92,92,92,92,92,92,92,92,92,92,92,92,92,92,92,92,92,92,36,92,92,92,92,92,92,92,92,92,92,92,92,92,92,92,92,92,92,36,92,92,92,92,92,
92,92,92,92,92,92,92,92,92,92,92,92,92,92,92,92,92,92,92,92,92,92,92,92,92,92,92,92,36,29,29,92,92,92,92,92,92,92,92,92,92,92,92,92,92,92,92,92,92,92,92,92,92,92,92,35,92,92,92,92,92,92,92,92,92,92,92,92,92,92,92,92,92,92,36,92,92,92,92,92,
92,92,92,92,92,92,92,92,92,92,92,92,92,92,92,92,92,92,92,92,92,92,92,92,92,92,92,92,36,29,29,92,92,92,92,92,92,92,92,92,92,92,92,92,92,92,92,92,92,92,92,92,29,29,29,36,29,29,29,29,29,29,29,29,29,29,29,29,92,92,92,92,29,29,36,29,29,92,92,92,
92,92,92,92,92,92,92,92,29,29,29,29,29,92,92,92,92,92,92,92,92,92,92,92,92,92,92,92,36,29,46,92,92,92,92,92,92,92,92,92,92,92,92,92,92,92,92,92,92,92,92,92,29,29,29,36,29,29,29,29,29,29,29,29,29,29,29,29,92,92,92,92,29,29,36,29,29,92,92,92,
92,92,92,92,92,92,92,92,23,21,21,21,21,92,92,92,92,92,92,92,92,92,92,92,92,92,92,92,36,29,29,92,92,92,92,92,92,92,92,92,92,92,92,92,92,92,92,92,92,92,92,92,23,20,21,22,33,21,21,34,21,21,20,21,21,21,34,21,92,92,92,92,21,21,22,33,21,92,92,92,
92,92,92,92,92,92,92,92,35,29,29,29,29,29,29,29,29,29,29,29,29,29,29,29,29,29,29,29,36,29,29,29,29,29,29,29,29,29,29,29,29,29,29,29,29,29,29,29,29,29,29,29,36,29,29,29,29,46,29,29,29,29,29,29,29,47,29,29,92,92,92,92,29,29,51,46,29,92,92,92,
92,92,92,92,92,92,92,92,36,46,29,47,29,29,29,29,29,29,29,29,29,29,29,29,29,29,29,29,36,29,29,29,29,29,29,29,29,29,29,29,29,29,29,29,29,29,29,29,29,29,29,29,36,47,29,29,29,29,29,29,29,29,29,29,29,29,29,29,92,92,92,92,29,47,29,29,28,92,92,92,
92,92,92,92,92,92,92,92,36,29,56,29,29,33,21,21,21,21,21,21,21,21,21,21,21,21,21,21,22,29,29,33,21,21,21,21,21,21,21,21,21,21,21,21,21,21,21,21,21,21,21,21,22,29,29,29,29,29,29,29,29,29,46,29,6,6,6,6,92,92,92,92,92,92,92,92,92,92,92,92,
92,92,92,92,92,92,92,92,36,29,29,29,29,46,29,29,29,29,46,29,29,29,29,47,29,29,29,29,29,29,29,29,29,29,29,29,46,29,29,29,29,29,29,29,29,29,47,29,29,46,29,29,29,29,29,29,29,29,29,29,29,29,29,29,6,6,6,6,92,92,92,92,92,92,92,92,92,92,92,92,
92,92,92,92,92,92,92,92,35,29,29,46,29,92,92,92,92,92,92,92,92,92,92,92,92,92,92,92,49,29,29,92,92,92,92,92,92,92,92,92,92,92,92,92,92,49,92,92,92,92,92,92,29,29,29,29,29,29,29,29,29,29,29,29,6,6,6,6,92,92,92,92,92,92,92,92,92,92,92,92,
92,92,92,92,92,92,92,92,36,29,29,29,29,92,92,92,92,92,92,92,92,92,92,92,92,92,92,92,36,29,29,92,92,92,92,92,92,92,92,92,92,92,92,92,92,36,92,92,92,92,92,92,29,29,29,46,29,29,29,47,29,29,29,29,29,29,46,29,92,92,92,92,92,92,92,92,92,92,92,92,
92,92,92,92,92,92,92,92,92,92,92,92,92,92,92,92,92,92,92,92,92,92,92,92,92,92,92,92,36,29,29,92,92,92,92,92,92,92,92,92,92,92,92,92,92,35,92,92,92,92,92,92,29,29,29,29,29,29,29,29,29,29,46,29,29,29,29,29,92,92,92,92,92,92,92,92,92,92,92,92,
92,92,92,92,92,92,92,92,92,92,92,92,92,92,92,92,92,92,92,92,92,92,92,92,29,29,29,29,36,29,47,29,29,29,29,92,92,92,92,92,92,92,92,92,92,36,92,92,92,92,92,92,29,29,29,29,29,29,29,29,29,29,29,29,29,29,29,29,92,92,92,92,92,92,92,92,92,92,92,92,
92,92,92,92,92,92,92,92,92,92,92,92,92,92,92,92,92,92,92,92,92,92,92,92,29,29,29,29,36,29,29,29,29,29,29,92,92,92,92,92,92,92,92,92,92,36,92,92,92,92,92,92,92,92,92,92,92,92,92,92,92,92,92,92,49,29,29,92,92,92,92,92,92,92,92,92,92,92,92,92,
92,92,92,92,92,92,92,92,92,92,92,92,92,92,92,92,92,92,92,92,92,92,92,92,23,21,21,21,22,29,29,33,21,21,21,92,92,92,92,92,92,92,92,92,92,36,92,92,92,92,92,92,92,92,92,92,92,92,92,92,92,92,92,92,36,29,46,92,92,92,92,92,92,92,92,92,92,92,92,92,
92,92,92,92,92,92,92,92,92,92,92,92,92,92,92,92,92,92,92,92,92,92,92,92,36,29,46,29,29,29,29,29,29,29,29,92,92,92,92,92,92,92,92,92,92,36,92,92,92,92,92,92,92,92,92,92,92,92,92,92,92,92,92,92,35,29,29,92,92,92,92,92,92,92,92,92,92,92,92,92,
92,92,92,92,92,92,92,92,92,92,92,92,92,92,92,92,92,92,92,92,92,92,92,92,67,92,67,67,67,67,67,67,67,67,67,92,92,92,92,92,92,92,92,92,92,35,92,92,92,92,92,92,92,92,92,92,92,92,92,92,92,92,92,92,36,47,29,92,92,92,92,92,92,92,92,92,92,92,92,92,
92,92,92,92,92,92,92,92,92,92,92,92,92,92,92,92,92,92,92,92,92,92,92,92,67,67,75,67,79,67,67,75,67,67,79,92,92,92,92,92,92,92,92,92,92,36,92,92,92,92,92,92,92,92,92,92,92,92,92,92,92,92,92,92,36,29,29,92,92,92,92,92,92,92,92,92,92,92,92,92,
92,92,92,92,92,92,92,92,92,92,92,92,92,92,92,92,92,92,92,92,92,92,92,92,75,67,67,67,67,75,67,67,67,75,67,92,92,92,92,92,92,92,92,92,92,36,92,92,92,92,92,92,92,92,92,92,92,92,92,92,92,92,92,92,36,29,29,92,92,92,92,92,92,92,92,92,92,92,92,92,
92,92,92,92,92,92,92,92,92,92,92,92,92,92,92,92,92,92,92,92,92,92,92,92,67,79,75,67,67,79,67,75,67,67,67,92,92,92,92,92,92,92,92,92,92,36,29,29,29,29,29,29,92,92,92,92,92,92,92,92,92,92,92,92,36,29,29,92,92,92,92,92,92,92,92,92,92,92,92,92,
92,92,92,92,92,92,92,92,92,92,92,92,92,92,92,92,92,92,92,92,92,92,92,92,67,67,67,79,75,67,67,67,79,75,67,92,92,92,92,92,92,92,92,92,92,36,29,29,29,29,29,29,92,92,92,92,92,92,92,92,92,92,92,92,35,29,46,29,29,29,29,29,29,29,29,29,29,29,29,29,
92,92,92,92,92,92,92,92,92,92,92,92,92,92,92,92,92,92,92,92,92,92,92,92,67,75,67,67,67,79,67,75,67,67,67,29,29,29,29,29,29,29,29,29,29,35,33,21,21,21,21,21,92,92,92,92,92,92,92,92,92,92,92,92,36,29,29,29,29,29,29,29,29,29,29,29,29,29,29,29,
92,92,92,92,92,92,92,92,92,92,92,92,92,92,92,92,92,92,92,92,92,92,92,92,36,29,29,29,29,29,29,46,29,29,29,29,29,29,29,29,29,29,29,29,29,36,46,28,29,29,29,29,92,92,92,92,92,92,92,92,92,92,92,92,36,29,29,33,21,20,21,21,21,20,21,21,21,20,21,21,
92,92,92,92,92,92,92,92,92,92,92,92,92,92,92,92,92,92,92,92,92,92,92,92,36,29,46,29,29,29,29,29,29,47,29,33,21,21,21,21,21,21,21,21,21,22,29,29,29,29,47,29,92,92,92,92,92,92,92,92,92,92,92,92,35,29,47,29,29,29,29,29,46,29,29,29,29,29,47,29,
92,92,92,92,92,92,92,92,92,92,92,92,92,92,92,92,92,92,92,92,92,92,92,92,92,92,92,92,92,92,92,92,92,92,92,92,92,92,92,92,92,92,92,92,92,92,92,92,92,92,92,92,92,92,92,92,92,92,92,92,92,92,92,92,92,92,92,92,92,92,92,92,92,92,92,92,92,92,92,92,
92,92,92,92,92,92,92,92,92,92,92,92,92,92,92,92,92,92,92,92,92,92,92,92,92,92,92,92,92,92,92,92,92,92,92,92,92,92,92,92,92,92,92,92,92,92,92,92,92,92,92,92,92,92,92,92,92,92,92,92,92,92,92,92,92,92,92,92,92,92,92,92,92,92,92,92,92,92,92,92,
92,92,92,92,92,92,92,92,92,92,92,92,92,92,92,92,92,92,92,92,92,92,92,92,92,92,92,92,92,92,92,92,92,92,92,92,92,92,92,92,92,92,92,92,92,92,92,92,92,92,92,92,92,92,92,92,92,92,92,92,92,92,92,92,92,92,92,92,92,92,92,92,92,92,92,92,92,92,92,92
</data>
 </layer>
 <layer id="1" name="Walls" width="80" height="30">
  <data encoding="csv">
0,0,0,0,0,0,0,0,0,0,0,0,0,0,0,0,0,0,0,0,0,0,0,0,0,0,0,27,0,0,0,17,0,0,0,0,0,0,0,0,0,0,0,0,0,0,0,0,0,0,0,0,0,0,27,0,30,0,0,0,0,0,0,0,0,0,0,0,0,0,0,0,0,27,0,30,0,0,0,0,
0,0,0,0,0,0,0,0,0,0,0,0,0,0,0,0,0,0,0,0,0,0,0,0,0,0,0,27,0,0,0,30,0,0,0,0,0,0,0,0,0,0,0,0,0,0,0,0,0,0,0,0,0,0,27,0,30,0,0,0,0,0,0,0,0,0,0,0,0,0,0,0,0,27,0,30,0,0,0,0,
0,0,0,0,0,0,0,0,0,0,0,0,0,0,0,0,0,0,0,0,0,0,0,0,0,0,0,14,0,0,0,17,0,0,0,0,0,0,0,0,0,0,0,0,0,0,0,0,0,0,0,0,0,0,27,0,30,0,0,0,0,0,0,0,0,0,0,0,0,0,0,0,0,27,0,30,0,0,0,0,
0,0,0,0,0,0,0,0,0,0,0,0,0,0,0,0,0,0,0,0,0,0,0,0,0,0,0,27,0,0,0,17,0,0,0,0,0,0,0,0,0,0,0,0,0,0,0,0,0,0,0,0,0,0,27,0,30,0,0,0,0,0,0,0,0,0,0,0,0,0,0,0,0,27,0,30,0,0,0,0,
0,0,0,0,0,0,0,0,0,0,0,0,0,0,0,0,0,0,0,0,0,0,0,0,0,0,0,14,0,0,0,30,0,0,0,0,0,0,0,0,0,0,0,0,0,0,0,0,0,0,0,1,9,9,18,0,19,9,9,9,9,9,9,9,9,9,9,9,4,0,0,1,9,18,0,19,9,4,0,0,
0,0,0,0,0,0,0,1,2,9,3,2,3,4,0,0,0,0,0,0,0,0,0,0,0,0,0,27,0,0,0,30,0,0,0,0,0,0,0,0,0,0,0,0,0,0,0,0,0,0,0,27,15,7,15,0,15,32,15,15,15,15,7,15,8,15,15,15,30,0,0,14,15,15,0,15,15,30,0,0,
0,0,0,0,0,0,0,27,15,15,7,15,15,17,0,0,0,0,0,0,0,0,0,0,0,0,0,27,0,0,0,17,0,0,0,0,0,0,0,0,0,0,0,0,0,0,0,0,0,0,0,27,15,15,12,0,15,31,15,12,15,15,15,15,15,15,12,15,30,0,0,14,15,15,0,15,15,30,0,0,
0,0,0,0,0,0,0,27,15,15,16,15,32,19,9,3,9,3,3,2,3,3,2,9,3,2,9,18,0,0,0,19,9,9,9,9,9,9,9,9,9,9,9,9,9,9,9,9,9,9,9,18,0,0,0,0,0,0,0,0,0,0,0,0,0,0,0,0,30,0,0,14,0,0,0,0,0,30,0,0,
0,0,0,0,0,0,0,14,50,39,39,39,0,15,15,7,15,15,15,15,7,15,15,15,15,7,15,15,0,0,0,15,15,7,15,15,15,15,15,7,15,15,15,15,15,7,15,15,15,15,15,15,0,0,0,0,0,0,0,0,50,0,0,0,0,0,0,0,30,0,0,14,0,0,0,0,0,30,0,0,
0,0,0,0,0,0,0,27,0,0,0,0,0,15,15,16,15,31,15,15,16,15,15,32,15,16,15,15,0,0,0,15,15,15,15,15,15,15,15,15,15,15,15,15,15,15,15,15,15,15,15,15,0,0,0,0,0,0,0,0,0,0,0,0,0,0,0,0,30,0,0,14,0,0,0,0,0,30,0,0,
0,0,0,0,0,0,0,14,0,0,0,0,0,0,0,0,0,0,0,0,0,0,0,0,0,0,0,0,0,0,0,0,0,0,0,0,0,0,0,0,0,0,0,0,0,0,0,0,0,0,0,0,0,0,0,0,0,0,0,0,0,0,0,0,0,0,0,0,30,0,0,40,41,41,41,41,41,43,0,0,
0,0,0,0,0,0,0,14,0,0,0,0,0,0,0,0,0,0,0,0,0,0,0,0,0,0,0,0,0,0,0,0,0,0,0,0,0,0,0,0,0,0,0,0,0,0,0,0,0,0,0,0,0,0,0,0,0,0,0,0,0,0,0,0,0,0,0,0,30,0,0,0,0,0,0,0,0,0,0,0,
0,0,0,0,0,0,0,27,0,0,0,0,0,44,41,41,42,41,41,41,41,42,41,42,42,41,42,45,0,0,0,44,41,41,41,41,41,41,41,41,41,41,41,41,45,0,44,41,41,41,41,45,0,0,0,0,0,0,0,0,0,0,0,0,0,0,0,0,30,0,0,0,0,0,0,0,0,0,0,0,
0,0,0,0,0,0,0,14,0,0,0,0,0,30,0,0,0,0,0,0,0,0,0,0,0,0,0,27,0,0,0,17,0,0,0,0,0,0,0,0,0,0,0,0,14,0,30,0,0,0,0,27,0,0,0,50,0,0,0,0,0,0,0,0,0,0,0,0,30,0,0,0,0,0,0,0,0,0,0,0,
0,0,0,0,0,0,0,40,41,42,41,41,42,43,0,0,0,0,0,0,0,0,0,1,3,9,2,18,0,0,0,19,3,9,9,4,0,0,0,0,0,0,0,0,14,0,30,0,0,0,0,27,0,0,0,0,0,0,0,0,0,50,0,0,0,0,0,0,30,0,0,0,0,0,0,0,0,0,0,0,
0,0,0,0,0,0,0,0,0,0,0,0,0,0,0,0,0,0,0,0,0,0,0,14,15,7,15,15,0,0,0,15,15,7,15,30,0,0,0,0,0,0,0,0,14,0,30,0,0,0,0,27,0,0,0,0,0,0,0,0,0,0,0,0,0,0,0,0,30,0,0,0,0,0,0,0,0,0,0,0,
0,0,0,0,0,0,0,0,0,0,0,0,0,0,0,0,0,0,0,0,0,0,0,27,15,15,8,15,0,0,0,31,8,15,15,17,0,0,0,0,0,0,0,0,14,0,30,0,0,0,0,40,41,41,41,41,41,41,41,41,41,41,41,45,0,0,0,44,43,0,0,0,0,0,0,0,0,0,0,0,
0,0,0,0,0,0,0,0,0,0,0,0,0,0,0,0,0,0,0,0,0,0,0,27,0,0,0,0,0,0,0,0,0,0,0,30,0,0,0,0,0,0,0,0,14,0,30,0,0,0,0,0,0,0,0,0,0,0,0,0,0,0,0,27,0,0,0,30,0,0,0,0,0,0,0,0,0,0,0,0,
0,0,0,0,0,0,0,0,0,0,0,0,0,0,0,0,0,0,0,0,0,0,0,27,0,0,0,0,0,0,0,0,0,0,0,17,0,0,0,0,0,0,0,0,14,0,30,0,0,0,0,0,0,0,0,0,0,0,0,0,0,0,0,27,0,0,0,30,0,0,0,0,0,0,0,0,0,0,0,0,
0,0,0,0,0,0,0,0,0,0,0,0,0,0,0,0,0,0,0,0,0,0,0,27,73,72,69,74,69,72,69,72,69,71,69,30,0,0,0,0,0,0,0,0,14,0,30,0,0,0,0,0,0,0,0,0,0,0,0,0,0,0,0,27,0,0,0,30,0,0,0,0,0,0,0,0,0,0,0,0,
0,0,0,0,0,0,0,0,0,0,0,0,0,0,0,0,0,0,0,0,0,0,0,27,0,0,0,0,0,0,0,0,0,0,0,30,0,0,0,0,0,0,0,0,14,0,30,0,0,0,0,0,0,0,0,0,0,0,0,0,0,0,0,27,0,0,0,30,0,0,0,0,0,0,0,0,0,0,0,0,
0,0,0,0,0,0,0,0,0,0,0,0,0,0,0,0,0,0,0,0,0,0,0,27,0,0,0,0,0,0,0,0,0,0,0,17,0,0,0,0,0,0,0,0,14,0,19,9,9,9,9,9,4,0,0,0,0,0,0,0,0,0,0,27,0,0,0,30,0,0,0,0,0,0,0,0,0,0,0,0,
0,0,0,0,0,0,0,0,0,0,0,0,0,0,0,0,0,0,0,0,0,0,0,27,0,0,0,0,0,0,0,0,0,0,0,17,0,0,0,0,0,0,0,0,14,0,15,8,15,15,15,15,30,0,0,0,0,0,0,0,0,0,0,27,0,0,0,19,3,3,3,3,3,3,3,3,3,3,3,3,
0,0,0,0,0,0,0,0,0,0,0,0,0,0,0,0,0,0,0,0,0,0,0,27,0,0,0,0,0,0,0,0,0,0,0,19,9,9,9,9,9,9,9,9,18,0,15,15,15,15,15,16,30,0,0,0,0,0,0,0,0,0,0,27,0,0,0,15,15,7,15,32,15,7,15,8,15,7,15,15,
0,0,0,0,0,0,0,0,0,0,0,0,0,0,0,0,0,0,0,0,0,0,0,27,0,0,0,0,0,0,0,0,0,0,0,15,15,7,15,15,15,15,7,32,15,0,0,0,39,39,39,0,30,0,0,0,0,0,0,0,0,0,0,27,0,0,0,15,15,15,15,15,15,15,15,31,15,15,15,15,
0,0,0,0,0,0,0,0,0,0,0,0,0,0,0,0,0,0,0,0,0,0,0,27,0,0,0,0,0,0,0,0,0,0,0,15,15,15,15,16,15,15,15,15,15,0,0,0,0,0,0,0,30,0,0,0,0,0,0,0,0,0,0,27,0,0,0,0,0,0,0,0,0,0,0,0,0,0,0,0,
0,0,0,0,0,0,0,0,0,0,0,0,0,0,0,0,0,0,0,0,0,0,0,27,0,0,0,0,0,0,0,0,0,0,0,0,0,0,0,0,0,0,0,0,0,0,0,0,0,0,0,0,30,0,0,0,0,0,0,0,0,0,0,27,0,0,0,0,0,0,0,0,0,0,0,0,0,0,0,0,
0,0,0,0,0,0,0,0,0,0,0,0,0,0,0,0,0,0,0,0,0,0,0,40,42,42,42,42,42,42,42,42,42,42,42,42,42,42,42,42,42,42,41,41,42,42,42,42,42,42,42,42,43,0,0,0,0,0,0,0,0,0,0,40,41,41,41,41,41,41,41,41,41,41,41,41,41,41,41,41,
0,0,0,0,0,0,0,0,0,0,0,0,0,0,0,0,0,0,0,0,0,0,0,0,0,0,0,0,0,0,0,0,0,0,0,0,0,0,0,0,0,0,0,0,0,0,0,0,0,0,0,0,0,0,0,0,0,0,0,0,0,0,0,0,0,0,0,0,0,0,0,0,0,0,0,0,0,0,0,0,
0,0,0,0,0,0,0,0,0,0,0,0,0,0,0,0,0,0,0,0,0,0,0,0,0,0,0,0,0,0,0,0,0,0,0,0,0,0,0,0,0,0,0,0,0,0,0,0,0,0,0,0,0,0,0,0,0,0,0,0,0,0,0,0,0,0,0,0,0,0,0,0,0,0,0,0,0,0,0,0
</data>
 </layer>
 <objectgroup id="4" name="Interactables">
  <object id="2" name="Chest1" type="Interactable_Chest_Standard" gid="65" x="464" y="416" width="16" height="16"/>
  <object id="3" name="ProgressBlock1" type="Story_1" gid="37" x="624" y="192" width="16" height="16"/>
  <object id="5" name="Chest2" type="Interactable_Chest_Super" gid="65" x="1184" y="144" width="16" height="16"/>
  <object id="6" name="Dialogue1" type="Interactable_Dialogue1x1" x="156.727" y="150.364">
   <polygon points="-28.7273,-22.3636 -12.7273,-22.3636 -12.7273,-6.36366 -28.7273,-6.36366"/>
  </object>
  <object id="7" name="Dialogue2" type="Interactable_Dialogue1x3" x="164.5" y="141">
   <polygon points="-20.5,-13 27.5,-13 27.5,2.99994 -20.5,2.99994"/>
  </object>
  <object id="8" name="Dialogue4" type="Interactable_Dialogue1x1" x="777.5" y="390">
   <polygon points="22.5,-6 38.5,-6 38.5,9.99994 22.5,9.99994"/>
  </object>
  <object id="9" name="Dialogue3" type="Interactable_Dialogue1x2" x="810.25" y="388.5">
   <polygon points="-42.25,-4.5 -10.25,-4.5 -10.25,11.4999 -42.25,11.4999"/>
  </object>
 </objectgroup>
 <layer id="3" name="Foreground" width="80" height="30">
  <data encoding="csv">
0,0,0,0,0,0,0,0,0,0,0,0,0,0,0,0,0,0,0,0,0,0,0,0,0,0,0,0,0,0,0,0,0,0,0,0,0,0,0,0,0,0,0,0,0,0,0,0,0,0,0,0,0,0,0,0,0,0,0,0,0,0,0,0,0,0,0,0,0,0,0,0,0,0,0,0,0,0,0,0,
0,0,0,0,0,0,0,0,0,0,0,0,0,0,0,0,0,0,0,0,0,0,0,0,0,0,0,0,0,0,0,0,0,0,0,0,0,0,0,0,0,0,0,0,0,0,0,0,0,0,0,0,0,0,0,0,0,0,0,0,0,0,0,0,0,0,0,0,0,0,0,0,0,0,0,0,0,0,0,0,
0,0,0,0,0,0,0,0,0,0,0,0,0,0,0,0,0,0,0,0,0,0,0,0,0,0,0,0,0,0,0,0,0,0,0,0,0,0,0,0,0,0,0,0,0,0,0,0,0,0,0,0,0,0,0,0,0,0,0,0,0,0,0,0,0,0,0,0,0,0,0,0,0,0,0,0,0,0,0,0,
0,0,0,0,0,0,0,0,0,0,0,0,0,0,0,0,0,0,0,0,0,0,0,0,0,0,0,0,0,0,0,0,0,0,0,0,0,0,0,0,0,0,0,0,0,0,0,0,0,0,0,0,0,0,0,0,0,0,0,0,0,0,0,0,0,0,0,0,0,0,0,0,0,0,0,0,0,0,0,0,
0,0,0,0,0,0,0,0,0,0,0,0,0,0,0,0,0,0,0,0,0,0,0,0,0,0,0,0,0,0,0,0,0,0,0,0,0,0,0,0,0,0,0,0,0,0,0,0,0,0,0,0,0,0,0,0,0,0,0,0,0,0,0,0,0,0,0,0,0,0,0,0,0,0,0,0,0,0,0,0,
0,0,0,0,0,0,0,0,0,0,0,0,0,0,0,0,0,0,0,0,0,0,0,0,0,0,0,0,0,0,0,0,0,0,0,0,0,0,0,0,0,0,0,0,0,0,0,0,0,0,0,0,0,0,0,0,0,0,0,0,0,0,0,0,0,0,0,0,0,0,0,0,0,0,0,0,0,0,0,0,
0,0,0,0,0,0,0,0,63,0,0,0,0,0,0,0,0,0,0,0,0,0,0,0,0,0,0,0,0,0,0,0,0,0,0,0,0,0,0,0,0,0,0,0,0,0,0,0,0,0,0,0,0,0,0,0,0,0,0,0,0,0,0,0,0,0,0,0,0,0,0,0,0,0,0,0,0,0,0,0,
0,0,0,0,0,0,0,0,0,26,26,26,0,0,0,0,0,0,0,0,0,0,0,0,0,0,0,0,0,0,0,0,0,0,0,0,0,0,0,0,0,0,0,0,0,0,0,0,0,0,0,0,0,0,0,0,0,0,0,0,0,0,0,0,0,0,0,0,0,0,0,0,0,0,0,0,0,0,0,0,
0,0,0,0,0,0,0,0,0,0,0,0,0,0,0,0,0,0,0,0,0,0,0,0,0,0,0,0,0,0,0,0,0,0,0,0,0,0,0,0,0,0,0,0,0,0,0,0,0,0,0,0,0,0,0,0,0,0,0,0,0,0,0,0,0,0,0,0,0,0,0,0,0,0,0,0,0,0,0,0,
0,0,0,0,0,0,0,0,0,0,0,0,0,0,0,0,0,0,0,0,0,0,0,0,0,0,0,0,0,0,0,0,0,0,0,0,0,0,0,0,0,0,0,0,0,0,0,0,0,0,0,0,0,0,0,0,0,0,0,0,0,0,0,0,0,0,0,0,0,0,0,0,0,0,0,0,0,0,0,0,
0,0,0,0,0,0,0,0,0,0,0,0,0,0,0,0,0,0,0,0,0,0,0,0,0,0,0,0,0,0,0,0,0,0,0,0,0,0,0,0,0,0,0,0,0,0,0,0,0,0,0,0,0,0,0,0,0,0,0,0,0,0,0,0,0,0,0,0,0,0,0,0,0,0,0,0,0,0,0,0,
0,0,0,0,0,0,0,0,0,0,0,0,0,0,0,0,0,0,0,0,0,0,0,0,0,0,0,0,0,0,0,0,0,0,0,0,0,0,0,0,0,0,0,0,0,0,0,0,0,0,0,0,0,0,0,0,0,0,0,0,0,0,0,0,0,0,0,0,0,0,0,0,0,0,0,0,0,0,0,0,
0,0,0,0,0,0,0,0,0,0,0,0,0,0,0,0,0,0,0,0,0,0,0,0,0,0,0,0,0,0,0,0,0,0,0,0,0,0,0,0,0,0,0,0,0,0,0,0,0,0,0,0,0,0,0,0,0,0,0,0,0,0,0,0,0,0,0,0,0,0,0,0,0,0,0,0,0,0,0,0,
0,0,0,0,0,0,0,0,0,0,0,0,0,0,0,0,0,0,0,0,0,0,0,0,0,0,0,0,0,0,0,0,0,0,0,0,0,0,0,0,0,0,0,0,0,0,0,0,0,0,0,0,0,0,0,0,0,0,0,0,0,0,0,0,0,0,0,0,0,0,0,0,0,0,0,0,0,0,0,0,
0,0,0,0,0,0,0,0,0,0,0,0,0,0,0,0,0,0,0,0,0,0,0,0,0,0,0,0,0,0,0,0,0,0,0,0,0,0,0,0,0,0,0,0,0,0,0,0,0,0,0,0,0,0,0,0,0,0,0,0,0,0,0,0,0,0,0,0,0,0,0,0,0,0,0,0,0,0,0,0,
0,0,0,0,0,0,0,0,0,0,0,0,0,0,0,0,0,0,0,0,0,0,0,0,0,0,0,0,0,0,0,0,0,0,0,0,0,0,0,0,0,0,0,0,0,0,0,0,0,0,0,0,0,0,0,0,0,0,0,0,0,0,0,0,0,0,0,0,0,0,0,0,0,0,0,0,0,0,0,0,
0,0,0,0,0,0,0,0,0,0,0,0,0,0,0,0,0,0,0,0,0,0,0,0,0,0,0,0,0,0,0,0,0,0,0,0,0,0,0,0,0,0,0,0,0,0,0,0,0,0,0,0,0,0,0,0,0,0,0,0,0,0,0,0,0,0,0,0,0,0,0,0,0,0,0,0,0,0,0,0,
0,0,0,0,0,0,0,0,0,0,0,0,0,0,0,0,0,0,0,0,0,0,0,0,0,0,0,0,0,0,0,0,0,0,0,0,0,0,0,0,0,0,0,0,0,0,0,0,0,0,0,0,0,0,0,0,0,0,0,0,0,0,0,0,0,0,0,0,0,0,0,0,0,0,0,0,0,0,0,0,
0,0,0,0,0,0,0,0,0,0,0,0,0,0,0,0,0,0,0,0,0,0,0,0,0,0,0,0,0,0,0,0,0,0,0,0,0,0,0,0,0,0,0,0,0,0,0,0,0,0,0,0,0,0,0,0,0,0,0,0,0,0,0,0,0,0,0,0,0,0,0,0,0,0,0,0,0,0,0,0,
0,0,0,0,0,0,0,0,0,0,0,0,0,0,0,0,0,0,0,0,0,0,0,0,0,0,0,0,0,0,0,0,0,0,0,0,0,0,0,0,0,0,0,0,0,0,0,0,0,0,0,0,0,0,0,0,0,0,0,0,0,0,0,0,0,0,0,0,0,0,0,0,0,0,0,0,0,0,0,0,
0,0,0,0,0,0,0,0,0,0,0,0,0,0,0,0,0,0,0,0,0,0,0,0,0,0,0,0,0,0,0,0,0,0,0,0,0,0,0,0,0,0,0,0,0,0,0,0,0,0,0,0,0,0,0,0,0,0,0,0,0,0,0,0,0,0,0,0,0,0,0,0,0,0,0,0,0,0,0,0,
0,0,0,0,0,0,0,0,0,0,0,0,0,0,0,0,0,0,0,0,0,0,0,0,0,0,0,0,0,0,0,0,0,0,0,0,0,0,0,0,0,0,0,0,0,0,0,0,0,0,0,0,0,0,0,0,0,0,0,0,0,0,0,0,0,0,0,0,0,0,0,0,0,0,0,0,0,0,0,0,
0,0,0,0,0,0,0,0,0,0,0,0,0,0,0,0,0,0,0,0,0,0,0,0,0,0,0,0,0,0,0,0,0,0,0,0,0,0,0,0,0,0,0,0,0,0,0,0,61,62,62,63,0,0,0,0,0,0,0,0,0,0,0,0,0,0,0,0,0,0,0,0,0,0,0,0,0,0,0,0,
0,0,0,0,0,0,0,0,0,0,0,0,0,0,0,0,0,0,0,0,0,0,0,0,0,0,0,0,0,0,0,0,0,0,0,0,0,0,0,0,0,0,0,0,0,0,0,0,26,26,26,0,0,0,0,0,0,0,0,0,0,0,0,0,0,0,0,0,0,0,0,0,0,0,0,0,0,0,0,0,
0,0,0,0,0,0,0,0,0,0,0,0,0,0,0,0,0,0,0,0,0,0,0,0,0,0,0,0,0,0,0,0,0,0,0,0,0,0,0,0,0,0,0,0,0,0,0,0,0,0,0,0,0,0,0,0,0,0,0,0,0,0,0,0,0,0,0,0,0,0,0,0,0,0,0,0,0,0,0,0,
0,0,0,0,0,0,0,0,0,0,0,0,0,0,0,0,0,0,0,0,0,0,0,0,0,0,0,0,0,0,0,0,0,0,0,0,0,0,0,0,0,0,0,0,0,0,0,0,0,0,0,0,0,0,0,0,0,0,0,0,0,0,0,0,0,0,0,0,0,0,0,0,0,0,0,0,0,0,0,0,
0,0,0,0,0,0,0,0,0,0,0,0,0,0,0,0,0,0,0,0,0,0,0,0,0,0,0,0,0,0,0,0,0,0,0,0,0,0,0,0,0,0,0,0,0,0,0,0,0,0,0,0,0,0,0,0,0,0,0,0,0,0,0,0,0,0,0,0,0,0,0,0,0,0,0,0,0,0,0,0,
0,0,0,0,0,0,0,0,0,0,0,0,0,0,0,0,0,0,0,0,0,0,0,0,0,0,0,0,0,0,0,0,0,0,0,0,0,0,0,0,0,0,0,0,0,0,0,0,0,0,0,0,0,0,0,0,0,0,0,0,0,0,0,0,0,0,0,0,0,0,0,0,0,0,0,0,0,0,0,0,
0,0,0,0,0,0,0,0,0,0,0,0,0,0,0,0,0,0,0,0,0,0,0,0,0,0,0,0,0,0,0,0,0,0,0,0,0,0,0,0,0,0,0,0,0,0,0,0,0,0,0,0,0,0,0,0,0,0,0,0,0,0,0,0,0,0,0,0,0,0,0,0,0,0,0,0,0,0,0,0,
0,0,0,0,0,0,0,0,0,0,0,0,0,0,0,0,0,0,0,0,0,0,0,0,0,0,0,0,0,0,0,0,0,0,0,0,0,0,0,0,0,0,0,0,0,0,0,0,0,0,0,0,0,0,0,0,0,0,0,0,0,0,0,0,0,0,0,0,0,0,0,0,0,0,0,0,0,0,0,0
</data>
 </layer>
</map>
